X: 071368
T: Gowel
T: R\'il na Gaibhle
S: "Ceol Rince na hEireann" 1/172
Z: B.Black
L: 1/8
M: 4/4
R: reel
K: Edor
e2 fe befe|e2 ag fgaf|e2 fe befe|fgag fedB|
e2 fe befe|e2 ag fgaf|e2 fe befe|fgag fe d2||
Bdcd B2 AF|GFGA BE E2|Bdcd B2 AF|GBAG FD D2 :|
BAFA A2 FA|BAFA Bd d2|BAFA ADFD|GEFD E2-E2|
BAFA A2 FA|BAFA Bd d2|BAFA ADFD|GEFD E3z||
